X:11478
T:Musical Priest, The
R:reel
D:Matt Molloy: Stony Steps.
Z:id:hn-reel-44
M:C|
K:Bm
FBBA BcdB|cBAf ecBA|FBBA BcdB|1 cBAc ~B3A:|2 cBAc ~B3c||
|:d2dc dfed|(3cBA eA fAeA|dcBc defb|afec ~B3c:|
|:dB~B2 bafb|afec ABce|dB~B2 bafb|1 afec ~B3c:|2 afec ~B3A||
